X:130
T:Little Gipsy. THO5.130, The
T:Little Gypsy aka. THO5.130, The
M:9/8
L:1/8
B:Thompson's Complete Collection of 200 Favourite Dances Vol.5
F:https://www.libraryofdance.org/manuals/1780c-Thompson-Compleat-5.pdf
Z:vmp. Peter Dunk 2024
Q:3/8=100
K:G
d2d Bdg dBG|c2c cAG FED|d2d Bdg dBG|(A/B/cB) AGF G3:|
|:A2A  ABc B2d|edc BAG|FED|d2c Bcd efg|(A/B/cB) AGF G3:|
W:
W:Cast off one Couple, up again ./.
W:Lead down the middle 1 Couple, up again & cast off ./:
W:Lead through the bottom, cast up :/.
W:through the top and cast off :/:

